img/icon-mail.svg

<svg width="15" height="11" viewBox="0 0 15 11" fill="none" xmlns="http://www.w3.org/2000/svg">
<path d="M13.75 0.1875C13.8429 0.189373 13.931 0.206351 14.019 0.248199C14.1098 0.291603 14.1896 0.356999 14.25 0.4375C14.2896 0.496495 14.2803 0.478792 14.25 0.4375C14.331 0.545439 14.375 0.677608 14.375 0.8125C14.3748 0.779209 14.3734 0.76476 14.375 0.8125V10.1875C14.375 10.5327 14.0952 10.8125 13.75 10.8125H1.25C0.904822 10.8125 0.625 10.5327 0.625 10.1875V0.8125C0.625 0.700608 0.655354 0.589505 0.712452 0.493543C0.828808 0.297487 1.03035 0.191928 1.25 0.1875H13.75ZM13.125 2.0625L7.875 6C7.675 6.15 7.4075 6.165 7.194 6.045L7.125 6L1.875 2.0625V9.5625H13.125V2.0625ZM3.125 1.4375L7.5 4.71875L11.875 1.4375H3.125Z" fill="#E30614"/>
</svg>

<svg width="15" height="11" fill="none" xmlns="http://www.w3.org/2000/svg"><path d="M13.75.188a.629.629 0 0 1 .5.25c.04.058.03.04 0 0 .081.107.125.24.125.374 0-.033-.002-.047 0 0v9.376c0 .345-.28.624-.625.624H1.25a.625.625 0 0 1-.625-.624V.812A.626.626 0 0 1 1.25.188h12.5Zm-.625 1.875L7.875 6a.625.625 0 0 1-.681.045L7.125 6l-5.25-3.938v7.5h11.25v-7.5Zm-10-.626L7.5 4.72l4.375-3.282h-8.75Z" fill="#E30614"/></svg>
